X:161
M:6/8
L:1/8
K:G
b3 g2b|afa geg|faf gbd|^c3 A3|afa bgb|afa geg|faf ed^c|d3 D3|
|:BdB c2a|AcA B2g|EGE AcA|F3 D3|G3 d2c|BGB AFD|EGE F/G/AF|G3 G,3:|

